X:1
T:Title
%%score { 1 | 2 }
L:1/8
M:6/4
K:Db
V:1 treble nm="Grand Piano"
V:2 bass 
V:1
 z6 z4[Q:1/4=114] [DF][EG] | [FA]4 [FA]2 [FA]2 [DF]2 [FA]2 | [Fd]4 [Gd]2 [Fd]6 | e4 e2 c2 B2 A2 | %4
 [Fd]4 [GB]2 [FA]2 [DF]2 [EG]2 | [FA]4 [FA]2 [FA]2 [DF]2 [FA]2 | [Fd]4 [Gd]2 [Fd]6 | %7
 c2 e2 [=Ge]2 [Ae]2 [EA]2 [Fd]2 |[M:4/4] [Ec]4 [DB]2 [CA]2 |[M:1/4] [DF][EG] | %10
[M:6/4] [FA]4 [_F=G]2 [=FA]2 [Fd]2 [Ac]2 | B4 =A2 B2 [=Ge]2 [Gd]2 | c4 c2 E2 G2 c2 | %13
 [FB]4 [FA]2 [FA]2 [DF]2 [EG]2 | [FA]4 [_F=G]2 [=FA]2 [Fd]2 [Ac]2 | [GB]4 [AB]2 [=Ge]6 | %16
 c2 B2 c2 d2 c2 B2 |[M:5/4] A4 e2 [Fd]4 |] %18
V:2
 z6 z4 [D,A,][D,A,] | [D,D]4 [D,D]2 [D,D]2 [D,A,]2 [D,D]2 | [D,A,]4 [D,B,]2 [D,A,]6 | %3
 [A,CG]4 [A,CG]2 [A,EG]2 [A,DG]2 [A,CG]2 | [D,A,]4 [D,B,]2 [D,D]2 [D,A,]2 [D,A,]2 | %5
 [D,D]4 [D,D]2 [D,D]2 [D,A,]2 [D,D]2 | [D,A,]4 [D,B,]2 [D,A,]6 | %7
 [A,E]2 [A,CA]2[K:bass] [E,D]2 [A,C]2 [C,A,]2 [D,A,]2 |[M:4/4] [E,A,]4 [E,G,]2 [A,,A,]2 | %9
[M:1/4] [D,A,][D,A,] |[M:6/4] [D,D]4 [D,B,]2 [D,D]2 [D,A,]2 [D,D]2 | %11
 [G,DG]4 [G,CG]2 [G,DG]2 [E,D]2 [E,E]2 | [A,EG]4 [A,EG]2 [A,C]2 [A,CE]2 [A,EG]2 | %13
 [D,D]4 [D,D]2 [D,D]2 [D,A,]2 [D,A,]2 | [D,D]4 [D,B,]2 [D,D]2 [D,A,]2 [D,D]2 | %15
 [G,D]4 [F,=D]2 [E,_D]6 | [A,EG]2 [A,EG]2 [=A,EG]2 [B,DF]2 [=G,D_F]2 [G,DF]2 | %17
[M:5/4] [A,DF]4[K:bass] [A,,A,CG]2 [D,A,]4 |] %18

